X:80
T:My Strawberry Patch Jig
R:jig
C:Bruce Osborne - June 2002
Z:bosborne@kos.net
M:6/8
L:1/8
K:Amaj
c/B/|AcA EAc|fec ecA|EGB dcB|Acf ecB|
AcA EAc|fec ecA|EGB dcB|AcB A2:|
|:E|FGF FGF|ECE Acf|ecf ecB|AGA B2 E|
FGF FGF|ECE Acf|ecf ecB|AcB A2:|
